!!!COM: Janáček, Leoš [Leo Eugen]
!!!OTL: Balada Blanická (Ballad of Blaník), Symphonic Poem for Orchestra
!!!OMV:
!!!example: 149
!!!work: Jan-40
**kern	**dynam	**kern	**dynam	**kern	**dynam	**kern	**dynam
*part4	*part4	*part3	*part3	*part2	*part2	*part1	*part1
*staff4	*	*staff3	*	*staff2	*	*staff1	*
*I"Violoncello	*	*I"Viola	*	*I"Bassoon I. II.	*	*I"Clarinet in Bb I. II.	*
*I'Vc.	*	*I'Vla.	*	*I'Bsn. I.	*	*I'Cl. I.	*
*clefF4	*	*clefC3	*	*clefF4	*	*clefG2	*
*	*	*	*	*	*	*ITrd1c2	*
*k[]	*	*k[]	*	*k[]	*	*k[]	*
*C:	*	*C:	*	*C:	*	*C:	*
*M4/4	*	*M4/4	*	*M4/4	*	*M4/4	*
*MM121	*	*MM121	*	*MM121	*	*MM121	*
=252	=252	=252	=252	=252	=252	=252	=252
!	!	!	!	!LO:TX:t=I.	!	!LO:TX:t=I. Solo	!
(>6F	mp	(>12fL	.	(>6F	mp	4r	.
.	.	12d-X	.	.	.	.	.
6A-X	.	12dn)	.	6A-X	.	.	.
!	!	!	!	!	!	!LO:TX:i:t=espress.	!
.	.	(>12d	.	.	.	(>4gg	f <
6G	.	12B-X	.	6G	.	.	.
.	.	12c-XJ)	.	.	.	.	.
6F	.	(>12fL	.	6F	.	4aa-X	.
.	.	12d-X	.	.	.	.	.
6A-	.	12dn)	.	6A-	.	.	.
.	.	(>12d	.	.	.	4ff	.
6G)	.	12B-	.	6G	.	.	.
.	.	12c-J)	.	.	.	.	.
=253	=253	=253	=253	=253	=253	=253	=253
(>6F	.	(>12fL	.	6F	.	2..bb-	[ >
.	.	12d-X	.	.	.	.	.
6A-X	.	12dn)	.	6A-X	.	.	.
.	.	(>12d	.	.	.	.	.
6G	.	12B-X	.	6G	.	.	.
.	.	12c-XJ)	.	.	.	.	.
6F	.	(>12fL	.	6F	.	.	.
.	.	12d-X	.	.	.	.	.
6A-	.	12dn)	.	6A-	.	.	.
.	.	(>12d	.	.	.	.	.
6G)	.	12B-	.	6G	.	.	.
.	.	.	.	.	.	8aa-X	]
.	.	12c-J)	.	.	.	.	.
=254	=254	=254	=254	=254	=254	=254	=254
(>6F	.	(>12fL	.	6F	.	8dd-X	.
.	.	12d-X	.	.	.	.	.
.	.	.	.	.	.	[4.cc-X)	.
6A-X	.	12dn)	.	6A-X	.	.	.
.	.	(>12d	.	.	.	.	.
6G	.	12B-X	.	6G	.	.	.
.	.	12c-XJ)	.	.	.	.	.
6F	.	(>12fL	.	6F	.	8cc-]	.
.	.	12d-X	.	.	.	.	.
.	.	.	.	.	.	8r	.
6A-	.	12dn)	.	6A-	.	.	.
.	.	(>12d	.	.	.	4r	.
6G)	.	12B-	.	6G)	.	.	.
.	.	12c-J)	.	.	.	.	.
=255	=255	=255	=255	=255	=255	=255	=255
(>6F-X	.	(<12dnL	.	(>6F-X	.	1r	.
.	.	12B-X	.	.	.	.	.
6A-X	.	12c-X)	.	6A-X	.	.	.
.	.	(<12c-	.	.	.	.	.
6G-X	.	12An	.	6G-X	.	.	.
.	.	12B-J)	.	.	.	.	.
6F-	.	(<12dL	.	6F-	.	.	.
.	.	12B-	.	.	.	.	.
6A-	.	12c-)	.	6A-	.	.	.
.	.	(<12c-	.	.	.	.	.
!	!	!	!	!LO:TX:i:t=dimin.	!	!	!
6G-)	.	12A	.	6G-)	.	.	.
!	!	!LO:TX:i:t=dimin.	!	!	!	!	!
.	.	12B-J)	.	.	.	.	.
=256	=256	=256	=256	=256	=256	=256	=256
(>6F-X	.	(<12dL	.	(>6F-X	.	1r	.
.	.	12B-X	.	.	.	.	.
6A-X	.	12c-X)	.	6A-X	.	.	.
.	.	(<12c-	.	.	.	.	.
6G-X	.	12A	.	6G-X	.	.	.
.	.	12B-J)	.	.	.	.	.
6F-	.	(<12dL	.	6F-	.	.	.
.	.	12B-	.	.	.	.	.
6A-	.	12c-)	.	6A-	.	.	.
.	.	(<12c-	.	.	.	.	.
6G-)	.	12A	.	6G-)	.	.	.
.	.	12B-J)	.	.	.	.	.
=257	=257	=257	=257	=257	=257	=257	=257
!	!	!	!	!LO:TX:t=I.	!	!	!
(>6E-X	.	(<12d-XL	.	(>6E-X	>	1r	.
.	.	12An	.	.	.	.	.
6G-X	.	12B-X)	.	6G-X	.	.	.
.	.	(<12B-	.	.	.	.	.
6F-X	.	12F#X	.	6F-X	.	.	.
.	.	12GJ)	.	.	.	.	.
6E-	.	(<12d-L	.	6E-	.	.	.
.	.	12A	.	.	.	.	.
6G-	.	12B-)	.	6G-	.	.	.
.	.	(<12B-	.	.	.	.	.
6F-)	.	12F#	.	6F-)	]	.	.
.	.	12GJ)	.	.	.	.	.
=258	=258	=258	=258	=258	=258	=258	=258
*	*	*	*	*^	*	*	*
(>6AA-X	p	(<12cL	p	(>6E-X	[1AA-X	pp	4r	.
.	.	12A-X	.	.	.	.	.	.
6F-X	.	12An)	.	6F-X	.	.	.	.
!	!	!	!	!	!	!	!LO:TX:t=Solo	!
.	.	(<12A	.	.	.	.	(>4a-X	mp <
6E-X)	.	12F	.	6E-)	.	.	.	.
.	.	12G-XJ)	.	.	.	.	.	.
(>6AA-	.	(<12cL	.	(>6E-	.	.	4a	.
.	.	12A-X	.	.	.	.	.	.
6F-	.	12An)	.	6F-	.	.	.	.
!	!	!LO:TX:t=allargando	!	!	!	!	!LO:TX:t=allargando	!
.	.	(<12A	.	.	.	.	4g-X	.
6E-)	.	12F	.	6E-)	.	.	.	.
.	.	12G-XJ)	.	.	.	.	.	.
=259	=259	=259	=259	=259	=259	=259	=259	=259
(>6AA-X	>	(<12cL	.	(>6E-X	2AA-]	.	2..ff-X	[ >
.	.	12A-X	.	.	.	.	.	.
6F-X	.	12An)	.	6F-X	.	.	.	.
.	.	(<12A	.	.	.	.	.	.
6E-X)	.	12F	.	6E-)	.	.	.	.
.	.	12G-XJ)	.	.	.	.	.	.
2r	]	2r	.	2r	2ryy	.	.	.
.	.	.	.	.	.	.	8ee-)	]
*	*	*	*	*v	*v	*	*	*
=	=	=	=	=	=	=	=
*-	*-	*-	*-	*-	*-	*-	*-
!!!system-decoration: [(s1,s2)][(s3,s4)]
!!!RDF**kern: > = above
!!!RDF**kern: < = below
!!!CDT: 1854/07/03-1928/08/12
!!!CBL: Hukvaldy, Moravia
!!!CDL: Moravaská Ostrava, Czech Republic
!!!CNT: Czech
!!!AGN: Orchestral; Programmatic
!!!MCN: Neumann, František
!!!MDT: 1920/03/21
!!!MGN: Brno National Theatre Orchestra
!!!MLC: Brno, Czechia
!!!MPD: 1920
!!!MPN:
!!!ODT: 1919
!!!PDT: 1958
!!!excerpt-start-measure: 252
!!!excerpt-end-measure: 259
!!!excerpt-start-time: 6:01
!!!excerpt-end-time: 6:17
!!!EEV: 2020/01/22
!!!ONB: Converted from MusicXML on 2020/01/22
